svgs/sharp-light/font-case.svg

<svg xmlns="http://www.w3.org/2000/svg" viewBox="0 0 640 512"><!--! Font Awesome Pro 6.6.0 by @fontawesome - https://fontawesome.com License - https://fontawesome.com/license (Commercial License) Copyright 2024 Fonticons, Inc. --><path d="M161 42.5L164.8 32l22.3 0L191 42.5 351.8 480l-34.1 0-47-128L81.3 352l-47 128L.2 480 161 42.5zM93.1 320l165.8 0L176 94.4 93.1 320zM640 176l0 288 0 16-32 0 0-16 0-34.7C585.4 460.1 549 480 508 480c-68.5 0-124-55.5-124-124l0-72c0-68.5 55.5-124 124-124c41 0 77.4 19.9 100 50.7l0-34.7 0-16 32 0 0 16zM508 192c-50.8 0-92 41.2-92 92l0 72c0 50.8 41.2 92 92 92s92-41.2 92-92l0-72c0-50.8-41.2-92-92-92z"/></svg>

<svg xmlns="http://www.w3.org/2000/svg" viewBox="0 0 640 512"><!--! Font Awesome Pro 6.4.0 by @fontawesome - https://fontawesome.com License - https://fontawesome.com/license (Commercial License) Copyright 2023 Fonticons, Inc. --><path d="M161 42.5L164.8 32h22.3L191 42.5 351.8 480H317.7l-47-128H81.3l-47 128H.2L161 42.5zM93.1 320H258.9L176 94.4 93.1 320zM640 176V464v16H608V464 429.3C585.4 460.1 549 480 508 480c-68.5 0-124-55.5-124-124V284c0-68.5 55.5-124 124-124c41 0 77.4 19.9 100 50.7V176 160h32v16zM508 192c-50.8 0-92 41.2-92 92v72c0 50.8 41.2 92 92 92s92-41.2 92-92V284c0-50.8-41.2-92-92-92z"/></svg>
